X:1
T:Jesu, hope of men despairing
T:Melody anon (1714) harm. by J.S. Bach
T:E.C. Homburg (1659) trans. B.E. Bulman
T:Jesu, hope of men despairing
C:Melody anon (1714)
C:harm. by J.S. Bach
Z:E.C. Homburg (1659)
Z:trans. B.E. Bulman
%%score [ 1 2 3 4 ]
L:1/8
M:3/4
K:Bb
V:1 treble nm="P1" snm="S."
V:2 treble nm="P2" snm="A."
V:3 treble-8 transpose=-12 nm="P3" snm="T."
V:4 bass nm="P4" snm="B."
V:1
 (d2 c2) B2 | c4 F2 | (B2 AG) c2 | A4 F2 | (d2 c2) B2 | c4 F2 | (B2 AG) c2 | A4 F2 | (B2 c2) d2 | %9
w: Earth * the|gen- 'ral|joy * * pur-|su- ing,|glad- * some|youth is|now * * re-|new- ing.|All * that|
w: Je- * su,|hope of|men * * des-|pair- ing,|to * the|lost, sal-|va- * * tion|bear- ing,|when * with|
w: Val- * iant-|ly thou|hast * * con-|tend- ed,|death's * dom-|in- ion|thou * * hast|end- ed;|Sa- * tan|
 G4 G2 | (A2 B2) c2 | ^F6 | d4 e2 | (d2 G2) c2 | B4 (AB) | G6 | c4 B2 | A2 (FG AB) | (c2 BA) (BG) | %19
w: live their|joy * dis-|play,|clothe them-|selves * in|bright ar- *|ray.|Lo, the|sea with * * *|mirth * * is *|
w: such tri-|um- * phant|might|thou o'er-|cam'st * thy|foes in *|fight.|Break- ing|bars of * * *|death's * * dark *|
w: now can|harm * no|more,|rage as|ne'er * he|raged be- *|fore.|There- fore|Zi- on * * *|loud * * is *|
 A4 F2 | (d2 c2) d2 | B2 (GA Bc) | (d2 c2) d2 | B4 G2 | e2 e2 d2 | (c2 BA) B2 | (cd) (A3 B) | B6 |] %28
w: voi- cing,|hills * and|val- leys * * *|all * re-|joi- cing:|||||
w: pri- son,|glor- * ious-|ly thou * * *|hast * a-|ri- sen.~|||||
w: sing- ing,|and * her|joy- ful * * *|voice * is|ring- ing:|Al- le- lu-|ia, * * al-|le- * lu- *|ia!|
V:2
 F4 F2 | F4 F2 | F4 =E2 | F4 F2 | F4 F2 | F2 C4 | (B,2 C2) G2 | F4 F2 | (F2 E2) D2 | (F2 B,2) E2 | %10
w: Earth the|gen- 'ral|joy pur-|su- ing,|glad- some|youth is|now * re-|new- ing.|All * that|live * their|
w: Je- su,|hope of|men des-|pair- ing,|to the|lost, sal-|va- * tion|bear- ing,|when * with|such * tri-|
w: Val- iant-|ly thou|hast con-|tend- ed,|death's dom-|in- ion|thou * hast|end- ed;|Sa- * tan|now * can|
 (E2 D2) C2 | D6 | D2 (G^F GA) | (^F2 D2) G2 | G4 ^F2 | D2 (=B,C DB,) | GF =EF (GE) | F4 F2 | %18
w: joy * dis-|play,|clothe them- * * *|selves * in|bright ar-|ray. Lo, * * *|* * * * the *|sea with|
w: um- * phant|might|thou o'er- * * cam'st|* * thy|foes in|fight. Break- * * *|* * * * ing *|bars of|
w: harm * no|more,|rage as * * *|ne'er * he|raged be-|fore. There- * * *|* * * * fore *|Zi- on|
 (GF D2) =E2 | C4 A,2 | (AG ^FG) (AF) | D4 G2 | (AG ^FG) (AF) | D4 B,2 | B2 (AG) (FD) | %25
w: mirth * * is|voi- cing,|hills * * * and *|val- leys|all * * * re- *|joi- cing:||
w: death's * * dark|pri- son,|glor- * * * ious- *|ly thou|hast * * * a- *|ri- sen.||
w: loud * * is|sing- ing,|and * * * her *|joy- ful|voice * * * is *|ring- ing:|Al- le- * lu- *|
 (G2 E2) D2 | G2 F4 | F6 |] %28
w: |||
w: |||
w: ia, * al-|le- lu-|ia!|
V:3
 (B2 c2) d2 | c4 c2 | (B2 c2) G2 | A4 A2 | (B2 c2) d2 | (c2 d=e) f2 | f4 =e2 | (c3 B) A2 | %8
w: Earth * the|gen- 'ral|joy * pur-|su- ing,|glad- * some|youth * * is|now re-|new- * ing.|
w: Je- * su,|hope of|men * des-|pair- ing,|to * the|lost, * * sal-|va- tion|bear- * ing,|
w: Val- * iant-|ly thou|hast * con-|tend- ed,|death's * dom-|in- * * ion|thou hast|end- * ed;|
 (B3 A) (cB) | B4 G2 | (G3 ^F) (AG) | A2 (dc BA | G2) B2 A2- | A2 (B2 G2) | (d2 ed) c2 | %15
w: All * that *|live their|joy * dis- *|play, clothe * * *|* them- selves|* in *|bright * * ar-|
w: when * with *|such tri-|um- * phant *|might thou * * *|* o'er- cam'st|* thy *|foes * * in|
w: Sa- * tan *|now can|harm * no *|more, rage * * *|* as ne'er|* he *|raged * * be-|
 B2 (GA =BG- | G2) c4 | (cB A2) c2 | (BA) G4 | (FG AB) c2 | A4 A2 | (GA Bc) (de) | d4 (BA) | %23
w: ray. Lo, * * *|* the|sea * * with|mirth * is|voi- * * * cing,|hills and|val- * * * leys *|all re- *|
w: fight. Break- * * *|* ing|bars * * of|death's * dark|pri- * * * son,|glor- ious-|ly * * * thou *|hast a- *|
w: fore. There- * * *|* fore|Zi- * * on|loud * is|sing- * * * ing,|and her|joy- * * * ful *|voice is *|
 (GA Bc) d2 | B3 c (df) | (ed c2) B2- | BG (c3 e) | d6 |] %28
w: joi- * * * cing:|||||
w: ri- * * * sen.|||||
w: ring- * * * ing:|Al- le- lu- *|ia, _ _ al-|* le- lu- *|ia!|
V:4
 (B,,2 A,,2) G,,2 | (A,,2 B,,C,) D,2 | G,,2 C,4 | (F,,2 C,2) F,2 | (B,,2 A,,2) G,,2 | %5
w: Earth * the|gen- * * 'ral|joy pur-|su- * ing,|glad- * some|
w: Je- * su,|hope * * of|men des-|pair- * ing,|to * the|
w: Val- * iant-|ly * * thou|hast con-|tend- * ed,|death's * dom-|
 (A,,2 B,,C,) D,2 | G,,2 C,4 | (F,,2 C,2) F,2 | (D,2 C,2) B,,2 | (E,F, G,F,) (E,D,) | %10
w: youth * * is|now re-|new- * ing.|All * that|live * * * their *|
w: lost, * * sal-|va- tion|bear- * ing,|when * with|such * * * tri- *|
w: in- * * ion|thou hast|end- * ed;|Sa- * tan|now * * * can *|
 (C,2 B,,2) A,,2 | D,3 (E, D,C, | B,,A,,) G,,2 C,2- | C,2 (B,,2 E,2) | (D,2 C,2) D,2 | G,6 | %16
w: joy * dis-|play, clothe * *|* * them- selves|* in *|bright * ar-|ray.|
w: um- * phant|might thou * *|* * o'er- cam'st|* thy *|foes * in|fight.|
w: harm * no|more, rage * *|* * as ne'er|* he *|raged * be-|fore.|
 (=E,D, C,D,) (E,C,) | F,4 F,2 | (=E,F, G,2) C,2 | F,4 F,2 | (^F,=E, D,E,) (F,D,) | G,4 G,2 | %22
w: Lo, * * * the *|sea with|mirth * * is|voi- cing,|hills * * * and *|val- leys|
w: Break- * * * ing *|bars of|death's * * dark|pri- son,|glor- * * * ious- *|ly thou|
w: There- * * * fore *|Zi- on|loud * * is|sing- ing,|and * * * her *|joy- ful|
 (^F,G, A,2) D,2 | G,4 G,,2 | (G,F,) (G,A,) B,2 | (E,2 F,2) G,2 | (E,2 F,2) [F,,F,]2 | B,,6 |] %28
w: all * * re-|joi- cing:|||||
w: hast * * a-|ri- sen.|||||
w: voice * * is|ring- ing:|Al- * le- * lu-|ia, * al-|le- * lu-|ia!|

